packages/core/src/svgs/bbl.svg

<svg width="24" height="24" viewBox="0 0 24 24" fill="none" xmlns="http://www.w3.org/2000/svg">
<g clip-path="url(#clip0_31_6770)">
<path d="M0 0H24V24H0V0Z" fill="url(#paint0_linear_31_6770)"/>
<path fill-rule="evenodd" clip-rule="evenodd" d="M12.7372 5.34437C12.5141 5.21196 12.2594 5.14209 12 5.14209C11.7406 5.14209 11.486 5.21196 11.2629 5.34437L6.73717 8.01865C6.51121 8.15359 6.32437 8.34515 6.1951 8.57438C6.06582 8.80362 5.99858 9.06262 6.00002 9.3258V14.6744C6.00002 15.2144 6.28288 15.7115 6.73717 15.9815L11.2629 18.6558C11.7172 18.9258 12.2829 18.9258 12.7372 18.6558L17.2629 15.9815C17.4888 15.8466 17.6757 15.655 17.8049 15.4258C17.9342 15.1965 18.0015 14.9375 18 14.6744V9.3258C18 8.7858 17.7172 8.28865 17.2629 8.01865L12.7372 5.34437ZM12.18 6.03865C12.1385 6.01415 12.0911 6.00123 12.0429 6.00123C11.9946 6.00123 11.9473 6.01415 11.9057 6.03865L7.03717 8.89723C6.9954 8.92184 6.96078 8.95692 6.93673 8.99902C6.91267 9.04111 6.90002 9.08875 6.90002 9.13723V14.8629C6.90002 14.9615 6.95145 15.0515 7.03717 15.1029L11.9057 17.9615C11.9915 18.0129 12.0943 18.0129 12.18 17.9615L17.0486 15.1029C17.1343 15.0515 17.1857 14.9615 17.1857 14.8629V9.13723C17.1857 9.08875 17.1731 9.04111 17.149 8.99902C17.125 8.95692 17.0904 8.92184 17.0486 8.89723L12.18 6.04294V6.03865ZM12.5786 6.5958C12.4047 6.48845 12.2044 6.4316 12 6.4316C11.7957 6.4316 11.5953 6.48845 11.4215 6.5958L7.86431 8.76437C7.50431 8.98294 7.28574 9.27437 7.28574 9.71151V14.6144C7.28574 14.9444 7.41431 15.0044 7.62859 15.1072C7.69717 15.1415 7.77431 15.1801 7.86431 15.2358L11.4215 17.4087C11.7815 17.6229 12.2186 17.6229 12.5786 17.4087L16.1357 15.2358C16.2215 15.1801 16.3072 15.1415 16.3757 15.1072C16.59 15.0044 16.7143 14.9444 16.7143 14.6144V9.71151C16.7143 9.27437 16.4957 8.98294 16.1357 8.76865L12.5786 6.59151V6.5958ZM12.1157 6.87437C12.081 6.85271 12.0409 6.84123 12 6.84123C11.9591 6.84123 11.919 6.85271 11.8843 6.87437L7.83002 9.33437C7.79465 9.35578 7.7654 9.38598 7.74513 9.42202C7.72486 9.45806 7.71424 9.49873 7.71431 9.54008V14.4601C7.71431 14.5458 7.75717 14.6229 7.83002 14.6658L11.8843 17.1258C11.9572 17.1687 12.0429 17.1687 12.1157 17.1258L16.17 14.6658C16.2429 14.6229 16.2857 14.5458 16.2857 14.4601V9.54008C16.2857 9.45437 16.2429 9.37723 16.17 9.33437L12.1157 6.87437ZM14.88 10.7315L12.2143 12.2744V15.3815C12.2143 15.5101 12.1072 15.6215 11.9743 15.6215C11.8457 15.6215 11.7857 15.5144 11.7857 15.3815V12.2744L9.11574 10.7315C9.06155 10.6993 9.02219 10.6472 9.00615 10.5862C8.99011 10.5253 8.99869 10.4605 9.03002 10.4058C9.04513 10.3787 9.06553 10.3549 9.09002 10.3358C9.11451 10.3168 9.14258 10.3028 9.17257 10.2948C9.20256 10.2868 9.23385 10.2849 9.26458 10.2893C9.29531 10.2936 9.32485 10.3041 9.35145 10.3201L11.9786 11.8629L14.6486 10.3201C14.76 10.2515 14.9057 10.2901 14.97 10.4058C15.0343 10.5215 14.9957 10.6629 14.8843 10.7315H14.88Z" fill="white"/>
</g>
<defs>
<linearGradient id="paint0_linear_31_6770" x1="4.46571" y1="4.16143" x2="29.2071" y2="32.58" gradientUnits="userSpaceOnUse">
<stop stop-color="#1A1E21"/>
<stop offset="1" stop-color="#06060A"/>
</linearGradient>
<clipPath id="clip0_31_6770">
<rect width="24" height="24" fill="white"/>
</clipPath>
</defs>
</svg>

<svg xmlns="http://www.w3.org/2000/svg" width="24" height="24" fill="none" viewBox="0 0 24 24"><g clip-path="url(#a)"><path fill="url(#b)" d="M0 0h24v24H0z"/><path fill="#fff" fill-rule="evenodd" d="M12.737 5.344a1.45 1.45 0 0 0-1.474 0L6.737 8.02A1.51 1.51 0 0 0 6 9.326v5.348c0 .54.283 1.037.737 1.308l4.526 2.674c.454.27 1.02.27 1.474 0l4.526-2.674A1.51 1.51 0 0 0 18 14.674V9.326a1.52 1.52 0 0 0-.737-1.307zm-.557.695a.27.27 0 0 0-.274 0L7.037 8.897a.28.28 0 0 0-.137.24v5.726c0 .098.051.189.137.24l4.869 2.859a.26.26 0 0 0 .274 0l4.869-2.86a.28.28 0 0 0 .137-.24V9.138a.28.28 0 0 0-.137-.24L12.18 6.043zm.399.557a1.1 1.1 0 0 0-1.158 0L7.865 8.764c-.36.219-.578.51-.578.948v4.902c0 .33.128.39.343.493.068.035.145.073.235.129l3.558 2.173c.36.214.797.214 1.157 0l3.557-2.173c.085-.056.171-.095.24-.129.214-.103.338-.163.338-.493V9.712c0-.438-.218-.73-.578-.943l-3.557-2.177zm-.463.278a.22.22 0 0 0-.232 0L7.83 9.334a.24.24 0 0 0-.116.206v4.92c0 .086.043.163.116.206l4.054 2.46a.22.22 0 0 0 .232 0l4.054-2.46a.24.24 0 0 0 .116-.206V9.54a.24.24 0 0 0-.116-.206zm2.764 3.858-2.666 1.542v3.108c0 .128-.107.24-.24.24-.128 0-.188-.108-.188-.24v-3.108l-2.67-1.542a.24.24 0 0 1 .057-.437.23.23 0 0 1 .178.025l2.628 1.543 2.67-1.543a.23.23 0 0 1 .321.086.24.24 0 0 1-.086.325z" clip-rule="evenodd"/></g><defs><linearGradient id="b" x1="4.466" x2="29.207" y1="4.161" y2="32.58" gradientUnits="userSpaceOnUse"><stop stop-color="#1A1E21"/><stop offset="1" stop-color="#06060A"/></linearGradient><clipPath id="a"><path fill="#fff" d="M0 0h24v24H0z"/></clipPath></defs></svg>
